X: 1
T: String Quartet in C Major opus 50 no 2 mvt 4
C: Franz Joseph Haydn
%%abc-version 2.0
%%abcx-abcm2ps-target-version 5.9.1 (29 Sep 2008)
%%abc-creator hum2abc beta
%%abcx-conversion-date 2021/02/14 14:38:08
%%abc-copyright Copyright (c) 1994, 2000 Center for Computer Assisted Research in the Humanities
%%abc-edited-by Frances Bennion
%%abcx-initial-encoding-date 1997/04/15
%%gracespace 0 6 6
%%humdrum-veritas 1373036478
%%humdrum-veritas-data 3024233547
%%linebreak <none>
%%barnumbers 0
L: 1/16
M: 2/4
N: Derived from op50n2-04.krn
Q: "Finale: Vivace assai"
%%staves [1 2 3 4]
V: 1
V: 2
V: 3 clef=alto
V: 4 clef=bass
K: C
[V:1]z6 z2 [I:setbarnb1]|
[V:2]z6 EF |
[V:3]z6 CD |
[V:4]z6 z2 |
[V:1]z6 c2 |
[V:2]G2G2 G2G2 |
[V:3]E2E2 E2E2 |
[V:4]z8 |
[V:1]BcdB G2z2 |
[V:2]G6 EF |
[V:3]F6 CD |
[V:4]z2G,A, B,2z2 |
[V:1]z6 g2 |
[V:2]G2G2 G2G2 |
[V:3]E2E2 E2E2 |
[V:4]z8 |
[V:1]fedc B2z2 |
[V:2]G6 EF |
[V:3]F6 CD |
[V:4]z2B,C D2z2 |
[V:1]z6 c2 |
[V:2]G2G2 G2G2 |
[V:3]E2E2 E2E2 |
[V:4]z8 |
[V:1]BcdB c2e2 |
[V:2]G6 G,2 |
[V:3]F4 E2C2 |
[V:4]z6 C,2 |
[V:1]G4 F3E/F/ |
[V:2]A,4 B,4 |
[V:3]C2B,C D2D2 |
[V:4]D,2D,2 G,,2G,,2 |
[V:1]E4 z2ce |
[V:2]C4 z4 |
[V:3]C4 z2E,G, |
[V:4]C,,C,B,,C, D,C,B,,C, |
[V:1]f2e2 f2a2 |
[V:2]c2c2 c2c2 |
[V:3]F,2G,2 A,2F,2 |
[V:4]A,,C,G,,C, A,,C,F,,C, |
[V:1]gafg e2ce |
[V:2]c4 z4 |
[V:3]C,4 z2E,G, |
[V:4]E,,C,D,,C, C,,C,_B,,C, |
[V:1]f2e2 f2a2 |
[V:2]c2c2 c2c2 |
[V:3]F,2G,2 A,2F,2 |
[V:4]A,,C,G,,C, A,,C,F,,C, |
[V:1]gafg e2ce |
[V:2]c4 z4 |
[V:3]C,4 z2EG |
[V:4]E,,C,D,,C, C,,C,_B,,C, |
[V:1]f2e2 f2a2 |
[V:2]c2c2 c2c2 |
[V:3]F2G2 A2F2 |
[V:4]A,,C,G,,C, A,,C,F,,C, |
[V:1]g2b2 c'2e'2 |
[V:2]c4 z2G2 |
[V:3]C4 z4 |
[V:4]E,,C,D,,C, E,,C,C,,C, |
[V:1]g8 |
[V:2]AcBc dcBc |
[V:3]z2A2 A2A2 |
[V:4]D,,2D,2 D,2D,2 |
[V:1]^f8 |
[V:2]AcBc dcBc |
[V:3]z2A2 A2A2 |
[V:4]D,,2D,2 D,2D,2 |
[V:1]fgfd bc'bf |
[V:2]B2z2 d2z2 |
[V:3]G2z2 D2z2 |
[V:4]G,,2G,2 G,2G,2 |
[V:1]d'e'd'b f'2f'2 |
[V:2]f2z2 d'2d'2 |
[V:3]B,2z6 |
[V:4]G,,2G,2 G,2G,2 |
[V:1]f'2z2 d'2z2 |
[V:2]d'2z2 b2z2 |
[V:3]B,CB,G, DEDG, |
[V:4]G,,2z2 G,,2z2 |
[V:1]b2z6 |
[V:2]f2z6 |
[V:3]F2z6 |
[V:4]G,,2z6 |
[V:1]f2z2 d2z2 |
[V:2]B,CB,G, DEDG, |
[V:3]D2z2 F2z2 |
[V:4]G,,2z2 G,,2z2 |
[V:1]B6 z2 |
[V:2]F6 EF |
[V:3]D6 CD |
[V:4]G,,6 z2 |
[V:1]z8 |
[V:2]G2G2 G2G2 |
[V:3]E2E2 E2E2 |
[V:4]z6 C2 |
[V:1]z8 |
[V:2]G6 EF |
[V:3]F6 CD |
[V:4]B,CDB, G,2z2 |
[V:1]z6 c'2 |
[V:2]G2G2 G2G2 |
[V:3]E2E2 E2E2 |
[V:4]z8 |
[V:1]bc'd'e' f'2z2 |
[V:2]FGFE D2EF |
[V:3]DEDC B,2CD |
[V:4]G,4 z4 |
[V:1]z6 c2 |
[V:2]G2G2 G2G2 |
[V:3]E2E2 E2E2 |
[V:4]z8 |
[V:1]c2Bc d2d2 |
[V:2]F2FG A2A2 |
[V:3]D2DE F2F2 |
[V:4]z8 |
[V:1]d2^cd e2e2 |
[V:2]G2GA _B2B2 |
[V:3]E2EF G2G2 |
[V:4]z8 |
[V:1]edfe gfag |
[V:2]A8- |
[V:3]F2F2 F2F2 |
[V:4]z8 |
[V:1]_bagf edec |
[V:2]A8 |
[V:3]F4 ^F4 |
[V:4]z8 |
[V:1]BGAB cde^f |
[V:2]G4 z4 |
[V:3]G4 z2B,C |
[V:4]z6 G,A, |
[V:1]gabc' d'bag |
[V:2]z8 |
[V:3]D2D2 D2D2 |
[V:4]B,2B,2 B,2B,2 |
[V:1]^fgag bac'b |
[V:2]z6 ^FG |
[V:3]C4 z2DE |
[V:4]A,4 z4 |
[V:1]d'c'ba g^fed |
[V:2]A2A2 A2A2 |
[V:3]^F2F2 F2F2 |
[V:4]z8 |
[V:1]cBdc edg^f |
[V:2]G4 z2B,C |
[V:3]G4 z2DC |
[V:4]z6 B,A, |
[V:1]agbg ^fed^c |
[V:2]D2D2 D2G2 |
[V:3]B,2B,2 B,2^CE |
[V:4]G,2G,2 G,2E,2 |
[V:1]Dd_ed =ed^fd |
[V:2]^F4 z2c2 |
[V:3]D6 D2 |
[V:4]D,4 z4 |
[V:1]gdad bdd'd |
[V:2]BcAB G2z2 |
[V:3]decd B2G2 |
[V:4]z6 B,2 |
[V:1]c'd'bc' ade^f |
[V:2]z6 c2 |
[V:3]^F2G2 A2D2 |
[V:4]A,B,G,A, ^F,2z2 |
[V:1]gdad bdd'd |
[V:2]BcAB G2z2 |
[V:3]decd B2G2 |
[V:4]z6 B,,2 |
[V:1]c'd'bc' ade^f |
[V:2]z6 c2 |
[V:3]^F2G2 A2D2 |
[V:4]A,,B,,G,,A,, ^F,,2z2 |
[V:1]gdad bdd'd |
[V:2]BcAB G2z2 |
[V:3]decd B2G2 |
[V:4]z6 B,2 |
[V:1]c'd'bc' ade^f |
[V:2]z6 d2 |
[V:3]^F2G2 A2D2 |
[V:4]A,B,G,A, ^F,2C2 |
[V:1]g4 z2d2 |
[V:2]ga^fg efde |
[V:3]B2A2 G2^F2 |
[V:4]B,4 z4 |
[V:1]c'd'bc' abga |
[V:2]c2z6 |
[V:3]G2^F2 EFDE |
[V:4]E2D2 CDB,C |
[V:1]^fgef decd |
[V:2]z8 |
[V:3]CDB,C A,2^F,2 |
[V:4]A,B,G,A, ^F,2A,2 |
[V:1]cBdc edeg |
[V:2]z6 EC |
[V:3]G,8- |
[V:4]G,2E,2 B,,2C,2 |
[V:1]G4 A2GA |
[V:2]B,4 C2B,C |
[V:3]G,4 ^F,4 |
[V:4]D,4 D,,4 |
[V:1]G4 z4 |
[V:2]B,4 z4 |
[V:3]G,4 z2B,C |
[V:4]G,,4 z2G,A, |
[V:1]z8 |
[V:2]z8 |
[V:3]D2D2 DB,CD |
[V:4]B,2B,2 B,G,A,B, |
[V:1]z6 ^fg |
[V:2]z6 de |
[V:3]E2E2 E2z2 |
[V:4]C2C2 C2z2 |
[V:1]a2a2 a^fga |
[V:2]^f2f2 fdef |
[V:3]z8 |
[V:4]z8 |
[V:1]b2b2 b2z2 |
[V:2]g2g2 g2Bc |
[V:3]z6 G,A, |
[V:4]z8 |
[V:1]z4 g4- |
[V:2]dede dBcd |
[V:3]B,CB,C B,G,A,B, |
[V:4]z8 |
[V:1]g2^g2 a4- |
[V:2]e^fef ecde |
[V:3]CDCD CA,B,C |
[V:4]z8 |
[V:1]a2^a2 b4- |
[V:2]^fgfg fdef |
[V:3]DEDE DB,CD |
[V:4]z8 |
[V:1]bd'c'b a2d'2 |
[V:2]ge^fg afga |
[V:3]ECDE ^FDEF |
[V:4]z8 |
[V:1]b6 c'2 |
[V:2]g6 a2 |
[V:3]G4 z4 |
[V:4]z2G,2 E,2C,2 |
[V:1]a2d'2 ^c'2=c'2 |
[V:2]^f4 z4 |
[V:3]z2d2 ^c2=c2 |
[V:4]D,4 z4 |
[V:1]b6 c'2 |
[V:2]g6 a2 |
[V:3]B2G2 E2C2 |
[V:4]z8 |
[V:1]a2d'2 ^c'2=c'2 |
[V:2]^f2d2 ^c2=c2 |
[V:3]D4 z4 |
[V:4]z8 |
[V:1]b6 c'2 |
[V:2]B6 c2 |
[V:3]z2^F2 F2G2 |
[V:4]z2^D2 D2E2 |
[V:1]a2d'2 ^c'2=c'2 |
[V:2]A2^g2 a2^f2 |
[V:3]^F2D2 E2A2 |
[V:4]C2B,2 A,2D,2 |
[V:1]b2a2 c'2a2 |
[V:2]g2e4 e2 |
[V:3]D2A4 c2 |
[V:4]G,2C2 C2C2 |
[V:1]g8 |
[V:2]d2^c2 =c2B2 |
[V:3]B2_B2 A2G2 |
[V:4]D8- |
[V:1]a8 |
[V:2]c8 |
[V:3]^F8 |
[V:4]D2_E2 D2D,2 |
[V:1]g4 z4 |
[V:2]B6 c2 |
[V:3]G2G,2 E,2C,2 |
[V:4]G6 A2 |
[V:1]z8 |
[V:2]A2d2 ^c2=c2 |
[V:3]D,2D2 ^C2=C2 |
[V:4]^F4 z4 |
[V:1]b6 c'2 |
[V:2]B2g4 a2 |
[V:3]B,4 z4 |
[V:4]z2G,2 E,2C,2 |
[V:1]a2d'2 ^c'2=c'2 |
[V:2]^f2d2 ^c2=c2 |
[V:3]z8 |
[V:4]D,4 z4 |
[V:1]b6 c'2 |
[V:2]B6 c2 |
[V:3]z2^F2 F2G2 |
[V:4]z2^D2 D2E2 |
[V:1]a2d'2 ^c'2=c'2 |
[V:2]A2^g2 a2^f2 |
[V:3]^F2D2 E2A2 |
[V:4]C2B,2 A,2D,2 |
[V:1]b2a2 c'2a2 |
[V:2]g2e4 e2 |
[V:3]G2A4 c2 |
[V:4]G,2C2 C2C2 |
[V:1]g8 |
[V:2]d2^c2 =c2B2 |
[V:3]B2_B2 A2G2 |
[V:4]D8 |
[V:1]a8 |
[V:2]c8 |
[V:3]^F8 |
[V:4]_E,2D,2 D,,2D,2 |
[V:1]g4 z4 |
[V:2]B4 z2^FG |
[V:3]G4 z2A,B, |
[V:4]G,,2G,,2 G,,2G,,2 |
[V:1]z6 ^f2 |
[V:2]A2A2 A2A2 |
[V:3]C2C2 C2C2 |
[V:4]G,,2G,,2 G,,2G,,2 |
[V:1]gabg d2z2 |
[V:2]G4 z2A,B, |
[V:3]B,4 z2^F,G, |
[V:4]G,,2G,,2 G,,2G,,2 |
[V:1]z6 ^F2 |
[V:2]C2C2 C2C2 |
[V:3]A,2A,2 A,2A,2 |
[V:4]G,,2G,,2 G,,2G,,2 |
[V:1]GABG D2z2 |
[V:2]B,4 z4 |
[V:3]G,4 z2B,C |
[V:4]G,,2G,,2 G,,2G,A, |
[V:1]z8 |
[V:2]z8 |
[V:3]D2D2 D2DE |
[V:4]B,2B,2 B,2B,C |
[V:1]z6 Bc |
[V:2]z6 GA |
[V:3]F2F2 F2z2 |
[V:4]D2D2 D2z2 |
[V:1]d2d2 d2de |
[V:2]B2B2 B2Bc |
[V:3]z8 |
[V:4]z8 |
[V:1]f2f2 f2z2 |
[V:2]d2d2 d2z2 |
[V:3]z8 |
[V:4]z8 |
[V:1]z6 DE |
[V:2]z6 DE |
[V:3]z6 DE |
[V:4]z6 D,E, |
[V:1]F2F2 F2F2 |
[V:2]F2F2 F2F2 |
[V:3]F2F2 F2F2 |
[V:4]F,2F,2 F,2F,2 |
[V:1]^G,4 E4- |
[V:2]^G,8 |
[V:3]E,4 E4 |
[V:4]E,,8 |
[V:1]E4 ^D4 |
[V:2]A,8 |
[V:3]C4 A,2A2 |
[V:4]F,,8 |
[V:1]E4 z2a2 |
[V:2]B,4 z2^d2 |
[V:3]^GABG E2F2 |
[V:4]E,,4 z4 |
[V:1]^gabg e2^d'2 |
[V:2]e4 z2a2 |
[V:3]E4 z2F2 |
[V:4]z8 |
[V:1]e'4 z4 |
[V:2]^gabg e2z2 |
[V:3]E4 z4 |
[V:4]z8 |
[V:1]z8 |
[V:2]z8 |
[V:3]z8 |
[V:4]z8 |
[V:1]z8 |
[V:2]z8 |
[V:3]z6 A,B, |
[V:4]z8 |
[V:1]z8 |
[V:2]z6 ed |
[V:3]CEAE CEB,E |
[V:4]A,,2CB, A,2^G,2 |
[V:1]z6 c'a |
[V:2]c2cB A2z2 |
[V:3]CEAE CEA,E |
[V:4]A,4 z4 |
[V:1]e'2e'2 e'2e'2 |
[V:2]z8 |
[V:3]B,DED B,EB,C |
[V:4]^G,,4 z2^G,A, |
[V:1]e4 z2d'^g |
[V:2]z2BA ^G2ed |
[V:3]DE^GE DEGE |
[V:4]B,2z2 E,2z2 |
[V:1]a4 z4 |
[V:2]c4 z2ed |
[V:3]CEAE CEB,E |
[V:4]A,,2CB, A,2^G,2 |
[V:1]z6 c'a |
[V:2]c2cB A2z2 |
[V:3]CEAE CEA,E |
[V:4]A,4 z4 |
[V:1]e'2e'2 e'2e'2 |
[V:2]z8 |
[V:3]B,DED B,EB,C |
[V:4]^G,,4 z2^G,A, |
[V:1]e4 z2d'^g |
[V:2]z2BA ^G2ed |
[V:3]DE^GE DEGE |
[V:4]B,2z2 E,2z2 |
[V:1]a2a2 a2a2 |
[V:2]c4 z2EC |
[V:3]CEAE CECE |
[V:4]A,4 z4 |
[V:1]A4 z2ac' |
[V:2]A,4 z4 |
[V:3]CEAE CECE |
[V:4]A,4 z4 |
[V:1]_b2b2 b2b2 |
[V:2]C6 EF |
[V:3]CG_BG BGBG |
[V:4]E,4 z2C,D, |
[V:1]C4 z2ge |
[V:2]G4 z2c_B |
[V:3]CG_BG BGBG |
[V:4]E,4 z4 |
[V:1]f4 z2c'_b |
[V:2]Acfc AcGc |
[V:3]A2AG F2E2 |
[V:4]F,,4 z4 |
[V:1]a2ag f2z2 |
[V:2]Acfc AcFc |
[V:3]F4 z4 |
[V:4]F,4 z2A,F, |
[V:1]z8 |
[V:2]G_BcB GcGA |
[V:3]E,4 z2EF |
[V:4]C2C2 C2C2 |
[V:1]z2gf e2c'_b |
[V:2]_Bcec Bcec |
[V:3]G2z2 C2z2 |
[V:4]C,4 z4 |
[V:1]a4 z4 |
[V:2]Acfc AcGc |
[V:3]F4 z2c_B |
[V:4]F,,2A,G, F,2E,2 |
[V:1]z6 af |
[V:2]Acfc AcFc |
[V:3]A2AG F2z2 |
[V:4]F,4 z4 |
[V:1]c'2c'2 c'2c'2 |
[V:2]G_BcB GcGA |
[V:3]z8 |
[V:4]E,,4 z2E,F, |
[V:1]c4 z2_be |
[V:2]_Bcec Bcec |
[V:3]z2GF E2C_B, |
[V:4]G,2z2 C,2z2 |
[V:1]f2a2 c'2a2 |
[V:2]Acfc AcAc |
[V:3]A,8 |
[V:4]F,8 |
[V:1]_e'8- |
[V:2]Ac_ec ecec |
[V:3]A8 |
[V:4]^F,8 |
[V:1]e'2c'2 g2_e2 |
[V:2]Gc_ec ecec |
[V:3]G8 |
[V:4]G,8 |
[V:1]c8- |
[V:2]_Gc_ec ecec |
[V:3]_G8 |
[V:4]_A,8 |
[V:1]c2g2 f2_e2 |
[V:2]Fc_ec ecec |
[V:3]F8 |
[V:4]A,8 |
[V:1]d_BAB dBd_e |
[V:2]_B4 z2_B,C |
[V:3]_B,8- |
[V:4]_B,4 z4 |
[V:1]f_BAB fBfg |
[V:2]D4 z2D_E |
[V:3]B,8- |
[V:4]z8 |
[V:1]_a_bga fg_ef |
[V:2]F2_E2 D2E2 |
[V:3]B,8- |
[V:4]z8 |
[V:1]d_efe dc_B_A |
[V:2]FG_AG FAGF |
[V:3]B,8 |
[V:4]z8 |
[V:1]G4 z4 |
[V:2]G_EDE GEG_A |
[V:3]_E4 z4 |
[V:4]_E,4 z2E,F, |
[V:1]z6 _b_a |
[V:2]_B_EDE BEBc |
[V:3]z6 G_A |
[V:4]G,4 z2G,_A, |
[V:1]g_ede geg_a |
[V:2]_d4 z2dc |
[V:3]_B4 z2B_A |
[V:4]_B,4 z4 |
[V:1]_b_ede bebc' |
[V:2]_B4 z2B_A |
[V:3]G4 z2GF |
[V:4]z8 |
[V:1]_d'8 |
[V:2]G8- |
[V:3]E8- |
[V:4]C,,C,B,,C, B,,C,B,,C, |
[V:1]c'4 _b4 |
[V:2]G8 |
[V:3]E8 |
[V:4]C,,C,B,,C, B,,C,B,,C, |
[V:1]a6 c'd' |
[V:2]F6 AG |
[V:3]F_ede cec_B |
[V:4]F,,4 z4 |
[V:1]_e'2c'2 a2c'd' |
[V:2]F6 AG |
[V:3]A_ede cec_B |
[V:4]F,,4 z4 |
[V:1]_e'2c'2 a2c'd' |
[V:2]^F6 AG |
[V:3]A_ede cec_B |
[V:4]^F,,4 z4 |
[V:1]_e'2c'2 ac'_ba |
[V:2]^F6 F2 |
[V:3]A_ede cedc |
[V:4]^F,,4 z4 |
[V:1]g4 z4 |
[V:2]G6 GB |
[V:3]_B4 z4 |
[V:4]G,,G,^F,G, A,G,=F,G, |
[V:1]z6 _ec |
[V:2]c2B2 c2_e2 |
[V:3]G2G2 G2G2 |
[V:4]_E,G,D,G, E,G,C,G, |
[V:1]g2g2 g2g2 |
[V:2]d_ecd _B2G=B |
[V:3]G4 z4 |
[V:4]_B,,G,A,,G, G,,G,F,G, |
[V:1]g4 z2_ec |
[V:2]c2B2 c2_e2 |
[V:3]G2G2 G2G2 |
[V:4]_E,G,D,G, E,G,C,G, |
[V:1]d2^f2 g2_b2 |
[V:2]d_ecd _B2_B,2 |
[V:3]G4 z4 |
[V:4]_B,,G,A,,G, B,,G,G,,G, |
[V:1]^c_ba^g aef=g |
[V:2]A,4 E4 |
[V:3]A8- |
[V:4]A,,4 ^C,4 |
[V:1]fd^cd fdaf |
[V:2]F4 z4 |
[V:3]A4 z4 |
[V:4]D,4 z4 |
[V:1]d'af'e' d'c'ba |
[V:2]F6 ^F2 |
[V:3]D6 ^D2 |
[V:4]D,6 ^D,2 |
[V:1]^ge^de ^fege |
[V:2]E6 E2 |
[V:3]E4 z2d2 |
[V:4]E,4 z4 |
[V:1]aebe c'ee'e |
[V:2]efde c2A2 |
[V:3]cdBc A2z2 |
[V:4]z6 C2 |
[V:1]d'e'c'd' be^f^g |
[V:2]^G2A2 B2E2 |
[V:3]z6 d2 |
[V:4]B,CA,B, ^G,2z2 |
[V:1]aebe c'ee'e |
[V:2]efde c2A2 |
[V:3]cdBc A2z2 |
[V:4]z6 C,2 |
[V:1]d'e'c'd' be^f^g |
[V:2]^G2A2 B2E2 |
[V:3]z8 |
[V:4]B,,C,A,,B,, ^G,,2D,2 |
[V:1]aebe c'bag |
[V:2]efde c2e2 |
[V:3]E8 |
[V:4]C,2B,,2 A,,2C,2 |
[V:1]^fd_ed =edfd |
[V:2]A4 z2c2 |
[V:3]D6 D2 |
[V:4]D,4 z4 |
[V:1]gdad bdd'd |
[V:2]BcAB G2z2 |
[V:3]decd B2G2 |
[V:4]z6 B,2 |
[V:1]c'd'bc' ade^f |
[V:2]z6 c2 |
[V:3]^F2G2 A2D2 |
[V:4]A,B,G,A, ^F,2z2 |
[V:1]gdad bdd'd |
[V:2]BcAB G2z2 |
[V:3]decd B2G2 |
[V:4]z6 B,,2 |
[V:1]c'd'bc' ade^f |
[V:2]z6 A2 |
[V:3]^F2G2 A2D2 |
[V:4]A,,B,,G,,A,, ^F,,2C,2 |
[V:1]gdga bgbc' |
[V:2]B4 z2dc |
[V:3]G4 z2BA |
[V:4]B,,4 z4 |
[V:1]d'4 z2ga |
[V:2]BGBc dBdc |
[V:3]GDGA BGBA |
[V:4]G,,4 z4 |
[V:1]bgbc' d'bd'e' |
[V:2]B4 z2fe |
[V:3]G4 z2dc |
[V:4]G,,4 z4 |
[V:1]f'4 z2d'e' |
[V:2]dBde fdfe |
[V:3]BGBc dBdc |
[V:4]G,,4 z4 |
[V:1]f'2z2 d'2z2 |
[V:2]d2z2 f2z2 |
[V:3]B2z2 B2z2 |
[V:4]G,,2z2 G,,2z2 |
[V:1]b2z6 |
[V:2]f2z6 |
[V:3]d2z6 |
[V:4]G,,2z6 |
[V:1]f2z2 d2z2 |
[V:2]B,CB,G, DEDG, |
[V:3]D2z2 F2z2 |
[V:4]G,,2z2 G,,2z2 |
[V:1]B6 z2 |
[V:2]F6 EF |
[V:3]D6 CD |
[V:4]G,,6 z2 |
[V:1]z6 c2 |
[V:2]G2G2 G2G2 |
[V:3]E2E2 E2E2 |
[V:4]z8 |
[V:1]BcdB G2z2 |
[V:2]G6 EF |
[V:3]F6 CD |
[V:4]z2G,A, B,2z2 |
[V:1]z6 g2 |
[V:2]G2G2 G2G2 |
[V:3]E2E2 E2E2 |
[V:4]z8 |
[V:1]fedc B2z2 |
[V:2]G6 EF |
[V:3]F6 CD |
[V:4]z2B,C D2z2 |
[V:1]z6 c2 |
[V:2]G2G2 G2G2 |
[V:3]E2E2 E2E2 |
[V:4]z8 |
[V:1]BcdB c2e2 |
[V:2]G6 G,2 |
[V:3]F4 E2C2 |
[V:4]z6 C,2 |
[V:1]G4 F3E/F/ |
[V:2]A,4 B,4 |
[V:3]C2B,C D2D2 |
[V:4]D,2D,2 G,,2G,,2 |
[V:1]E4 z3c/e/ |
[V:2]C4 z4 |
[V:3]C4 z2E,G, |
[V:4]C,,C,B,,C, D,C,B,,C, |
[V:1]f2e2 f2a2 |
[V:2]c2c2 c2c2 |
[V:3]F,2G,2 A,2F,2 |
[V:4]A,,C,G,,C, A,,C,F,,C, |
[V:1]gafg e2ce |
[V:2]c4 z4 |
[V:3]C,4 z2E,G, |
[V:4]E,,C,D,,C, C,,C,_B,,C, |
[V:1]f2e2 f2a2 |
[V:2]c2c2 c2c2 |
[V:3]F,2G,2 A,2F,2 |
[V:4]A,,C,G,,C, A,,C,F,,C, |
[V:1]gafg e2ce |
[V:2]c4 z4 |
[V:3]C,4 z2EG |
[V:4]E,,C,D,,C, C,,C,_B,,C, |
[V:1]f2e2 f2a2 |
[V:2]c2c2 c2c2 |
[V:3]F2G2 A2F2 |
[V:4]A,,C,G,,C, A,,C,F,,C, |
[V:1]g2^f2 g2_b2 |
[V:2]c8- |
[V:3]E2D2 C2E2 |
[V:4]E,,C,D,,C, E,,C,C,,C, |
[V:1]a_bga fgef |
[V:2]c2^c2 d2c2 |
[V:3]F2E2 F2G2 |
[V:4]F,,2F,2 F,2F,2 |
[V:1]defe dcBA |
[V:2]d4 z2A2 |
[V:3]A4 z2C2 |
[V:4]F,2F,2 ^F,2F,2 |
[V:1]G4 z2GA |
[V:2]D4 z2DE |
[V:3]B,4 z2B,C |
[V:4]G,,8- |
[V:1]Bcdc BcAB |
[V:2]F2F2 F2EF |
[V:3]D2D2 D2CD |
[V:4]G,,8- |
[V:1]cded cdBc |
[V:2]G2G2 G2FG |
[V:3]E2E2 E2DE |
[V:4]G,,8- |
[V:1]defe decd |
[V:2]A2A2 A2G2 |
[V:3]F2F2 F2E2 |
[V:4]G,,8- |
[V:1]Bcdc BcAB |
[V:2]F2F2 F2E2 |
[V:3]D2D2 D2C2 |
[V:4]G,,8- |
[V:1]GABA GAFG |
[V:2]D8 |
[V:3]B,8 |
[V:4]G,,8 |
[V:1]EcBc Bcec |
[V:2]E4 G4 |
[V:3]C8 |
[V:4]C,2C,2 E,2E,2 |
[V:1]BA^ga gafd |
[V:2]C4 z2AF |
[V:3]C4 z4 |
[V:4]F,2F,2 F,2F,2 |
[V:1]c4 d2cd |
[V:2]E4 F2EF |
[V:3]z2G2 B,2B,2 |
[V:4]G,2G,2 G,2G,2 |
[V:1]c4 z4 |
[V:2]E4 z4 |
[V:3]C4 z2E,F, |
[V:4]C,4 z2C,,D,, |
[V:1]z8 |
[V:2]z8 |
[V:3]G,2G,2 G,E,F,G, |
[V:4]E,,2E,,2 E,,C,,D,,E,, |
[V:1]z6 Bc |
[V:2]z6 GA |
[V:3]A,2A,2 A,2z2 |
[V:4]F,,2F,,2 F,,2z2 |
[V:1]d2d2 dBcd |
[V:2]B2B2 BGAB |
[V:3]z8 |
[V:4]z8 |
[V:1]e2e2 e2z2 |
[V:2]c2c2 c2EF |
[V:3]z6 CD |
[V:4]z8 |
[V:1]z4 c4- |
[V:2]GAGA GEFG |
[V:3]EFEF ECDE |
[V:4]z8 |
[V:1]c2^c2 d4- |
[V:2]ABAB AFGA |
[V:3]FGFG FDEF |
[V:4]z8 |
[V:1]d2^d2 e4- |
[V:2]BcBc BGAB |
[V:3]GAGA GEFG |
[V:4]z8 |
[V:1]egfe d2g2 |
[V:2]cABc dBcd |
[V:3]AFGA BGAB |
[V:4]z8 |
[V:1]e6 f2 |
[V:2]c6 d2 |
[V:3]c4 z4 |
[V:4]z2C2 A,2F,2 |
[V:1]d2g2 ^f2=f2 |
[V:2]B4 z4 |
[V:3]z2G2 ^F2=F2 |
[V:4]G,4 z4 |
[V:1]e6 f2 |
[V:2]c6 d2 |
[V:3]E2C2 A,2F,2 |
[V:4]z8 |
[V:1]d2g2 ^f2=f2 |
[V:2]B2G2 ^F2=F2 |
[V:3]G,4 z4 |
[V:4]z8 |
[V:1]e6 f2 |
[V:2]E6 F2 |
[V:3]z2B,2 B,2C2 |
[V:4]z2^G,2 G,2A,2 |
[V:1]d2g2 ^f2=f2 |
[V:2]D2^c2 d2B2 |
[V:3]B,2G2 A2D2 |
[V:4]F,2E,2 D,2G,2 |
[V:1]e2d2 f2d2 |
[V:2]c2A4 A2 |
[V:3]G2A4 F2 |
[V:4]C,2F,2 F,2F,2 |
[V:1]c8 |
[V:2]G2^F2 =F2E2 |
[V:3]E2_E2 D2C2 |
[V:4]G,8- |
[V:1]d8 |
[V:2]F8 |
[V:3]B,8 |
[V:4]G,2_A,2 G,2G,,2 |
[V:1]c4 z4 |
[V:2]e6 f2 |
[V:3]C2C2 A,2F,2 |
[V:4]C6 D2 |
[V:1]z8 |
[V:2]d2g2 ^f2=f2 |
[V:3]G,2G2 ^F2=F2 |
[V:4]B,4 z4 |
[V:1]e'6 f'2 |
[V:2]e2c4 d2 |
[V:3]E4 z4 |
[V:4]z2C,2 A,,2F,,2 |
[V:1]d'2g'2 ^f'2=f'2 |
[V:2]B2g2 ^f2=f2 |
[V:3]z8 |
[V:4]G,,4 z4 |
[V:1]e'6 f'2 |
[V:2]e6 f2 |
[V:3]z2B2 B2c2 |
[V:4]z2^G,2 G,2A,2 |
[V:1]d'2g'2 ^f'2=f'2 |
[V:2]d2^c2 =c2B2 |
[V:3]B2G2 A2d2 |
[V:4]F,2E,2 D,2G,,2 |
[V:1]e'2d'2 f'2d'2 |
[V:2]c2a4 a2 |
[V:3]c2d4 F2 |
[V:4]C,2F,2 F,2F,2 |
[V:1]c'8 |
[V:2]g2^f2 =f2e2 |
[V:3]E2_E2 D2C2 |
[V:4]G,8 |
[V:1]d'8 |
[V:2]f8 |
[V:3]B,8 |
[V:4]_A,,2G,,2 G,2G,,2 |
[V:1]c'c'bc' d'c'_e'c' |
[V:2]_e8 |
[V:3]C2c4 c2 |
[V:4]^F,,8 |
[V:1]zc'bc' d'c'e'c' |
[V:2]e8 |
[V:3]c8 |
[V:4]G,,8 |
[V:1]zc'bc' d'c'f'c' |
[V:2]f8 |
[V:3]c8 |
[V:4]A,,8 |
[V:1]zc'bc' e'c'g'c' |
[V:2]g6 e2 |
[V:3]c8 |
[V:4]E,,8 |
[V:1]a'8 |
[V:2]c8 |
[V:3]c4 z4 |
[V:4]F,,8- |
[V:1]b'4 c''4 |
[V:2]d4 _e4 |
[V:3]z8 |
[V:4]F,,4 ^F,,4 |
[V:1]G,4 ^fgfg |
[V:2]e2e4 e2- |
[V:3]c2c4 c2- |
[V:4]G,,4 z4 |
[V:1]^fgfg c'g=fe |
[V:2]e2e4 c2 |
[V:3]c2c4 c2 |
[V:4]z8 |
[V:1]d8- |
[V:2]DFEF GFEF |
[V:3]B8- |
[V:4]G,,2G,,2 G,,2G,,2 |
[V:1]d8 |
[V:2]BFEF GFEF |
[V:3]B8 |
[V:4]G,,2G,,2 G,,2G,,2 |
[V:1]c4 z4 |
[V:2]E4 z2EF |
[V:3]c4 z2CD |
[V:4]C,4 z4 |
[V:1]z6 c2 |
[V:2]G2G2 G2G2 |
[V:3]E2E2 E2E2 |
[V:4]z8 |
[V:1]BcdB G2z2 |
[V:2]G6 DE |
[V:3]F6 B,C |
[V:4]z2G,A, B,2z2 |
[V:1]z6 B2 |
[V:2]F2F2 F2F2 |
[V:3]D2D2 D2D2 |
[V:4]z6 G,,2 |
[V:1]c4 z4 |
[V:2]E6 ef |
[V:3]C6 cd |
[V:4]E,,F,,G,,E,, C,,2z2 |
[V:1]z6 c'2 |
[V:2]g2g2 g2g2 |
[V:3]e2e2 e2e2 |
[V:4]z8 |
[V:1]bc'd'e' f'2z2 |
[V:2]g6 DE |
[V:3]f6 B,C |
[V:4]z2G,A, B,2z2 |
[V:1]z6 [D2B2] |
[V:2]F2F2 F2[F2G,2] |
[V:3]D2D2 D2D2 |
[V:4]z6 G,,2 |
[V:1][E4c4] z4 |
[V:2][G,4E4] z4 |
[V:3]C4 z4 |
[V:4]E,,F,,G,,E,, C,,2z2 |
[V:1]z8 |]
[V:2]z8 |]
[V:3]z8 |]
[V:4]z8 |]

